packages/icons/src/components/ProductIcon/assets/compute-optimized-instances.svg

<svg width="64" height="64" viewBox="0 0 64 64" fill="none" xmlns="http://www.w3.org/2000/svg">
<g clip-path="url(#clip0_791_2095)">
<path d="M0 16C0 7.16344 7.16344 0 16 0H48C56.8366 0 64 7.16344 64 16V48C64 56.8366 56.8366 64 48 64H16C7.16344 64 0 56.8366 0 48V16Z" fill="#521094" class="fillWeak" />
<path fill-rule="evenodd" clip-rule="evenodd" d="M48 2H16C8.26801 2 2 8.26801 2 16V48C2 55.732 8.26801 62 16 62H48C55.732 62 62 55.732 62 48V16C62 8.26801 55.732 2 48 2ZM16 0C7.16344 0 0 7.16344 0 16V48C0 56.8366 7.16344 64 16 64H48C56.8366 64 64 56.8366 64 48V16C64 7.16344 56.8366 0 48 0H16Z" fill="#521094" class="fillWeak"/>
<path fill-rule="evenodd" clip-rule="evenodd" d="M25.4933 12.8834C25.4355 12.386 25.0128 12 24.5 12C23.9477 12 23.5 12.4477 23.5 13V18H23C20.2386 18 18 20.2386 18 23V23.5H13L12.8834 23.5067C12.386 23.5645 12 23.9872 12 24.5C12 25.0523 12.4477 25.5 13 25.5H18V28.5H13L12.8834 28.5067C12.386 28.5645 12 28.9872 12 29.5C12 30.0523 12.4477 30.5 13 30.5H18V33.5H13L12.8834 33.5067C12.386 33.5645 12 33.9872 12 34.5C12 35.0523 12.4477 35.5 13 35.5H18V38.5H13L12.8834 38.5067C12.386 38.5645 12 38.9872 12 39.5C12 40.0523 12.4477 40.5 13 40.5H18V41C18 43.7614 20.2386 46 23 46H23.5V50.8283L23.5067 50.9449C23.5645 51.4422 23.9872 51.8283 24.5 51.8283C25.0523 51.8283 25.5 51.3806 25.5 50.8283V46H28.5V50.8283L28.5067 50.9449C28.5645 51.4422 28.9872 51.8283 29.5 51.8283C30.0523 51.8283 30.5 51.3806 30.5 50.8283V46H33.5V50.8283L33.5067 50.9449C33.5645 51.4422 33.9872 51.8283 34.5 51.8283C35.0523 51.8283 35.5 51.3806 35.5 50.8283V46H38.5V50.8283L38.5067 50.9449C38.5645 51.4422 38.9872 51.8283 39.5 51.8283C40.0523 51.8283 40.5 51.3806 40.5 50.8283V46H41C43.7614 46 46 43.7614 46 41V40.5H50.8283L50.9449 40.4933C51.4422 40.4355 51.8283 40.0128 51.8283 39.5C51.8283 38.9477 51.3806 38.5 50.8283 38.5H46V35.5H50.8283L50.9449 35.4933C51.4422 35.4355 51.8283 35.0128 51.8283 34.5C51.8283 33.9477 51.3806 33.5 50.8283 33.5H46V30.5H50.8283L50.9449 30.4933C51.4422 30.4355 51.8283 30.0128 51.8283 29.5C51.8283 28.9477 51.3806 28.5 50.8283 28.5H46V25.5H50.8283L50.9449 25.4933C51.4422 25.4355 51.8283 25.0128 51.8283 24.5C51.8283 23.9477 51.3806 23.5 50.8283 23.5H46V23C46 20.2386 43.7614 18 41 18H40.5V13L40.4933 12.8834C40.4355 12.386 40.0128 12 39.5 12C38.9477 12 38.5 12.4477 38.5 13V18H35.5V13L35.4933 12.8834C35.4355 12.386 35.0128 12 34.5 12C33.9477 12 33.5 12.4477 33.5 13V18H30.5V13L30.4933 12.8834C30.4355 12.386 30.0128 12 29.5 12C28.9477 12 28.5 12.4477 28.5 13V18H25.5V13L25.4933 12.8834ZM44 24.5V23C44 21.4023 42.7511 20.0963 41.1763 20.0051L41 20H23C21.4023 20 20.0963 21.2489 20.0051 22.8237L20 23V41C20 42.5977 21.2489 43.9037 22.8237 43.9949L23 44H24.5H29.5H34.5H39.5H41C42.5977 44 43.9037 42.7511 43.9949 41.1763L44 41V39.5V34.5V29.5V24.5Z" fill="white" class="fill"/>
<path d="M22.1 31.8698C22.1 31.1831 22.2533 30.5698 22.56 30.0298C22.8733 29.4831 23.2966 29.0598 23.83 28.7598C24.37 28.4531 24.9733 28.2998 25.64 28.2998C26.42 28.2998 27.1033 28.4998 27.69 28.8998C28.2766 29.2998 28.6866 29.8531 28.92 30.5598H27.31C27.15 30.2265 26.9233 29.9765 26.63 29.8098C26.3433 29.6431 26.01 29.5598 25.63 29.5598C25.2233 29.5598 24.86 29.6565 24.54 29.8498C24.2266 30.0365 23.98 30.3031 23.8 30.6498C23.6266 30.9965 23.54 31.4031 23.54 31.8698C23.54 32.3298 23.6266 32.7365 23.8 33.0898C23.98 33.4365 24.2266 33.7065 24.54 33.8998C24.86 34.0865 25.2233 34.1798 25.63 34.1798C26.01 34.1798 26.3433 34.0965 26.63 33.9298C26.9233 33.7565 27.15 33.5031 27.31 33.1698H28.92C28.6866 33.8831 28.2766 34.4398 27.69 34.8398C27.11 35.2331 26.4266 35.4298 25.64 35.4298C24.9733 35.4298 24.37 35.2798 23.83 34.9798C23.2966 34.6731 22.8733 34.2498 22.56 33.7098C22.2533 33.1698 22.1 32.5565 22.1 31.8698Z" fill="#BF95F9" class="fillStrong"/>
<path d="M35.2058 30.5498C35.2058 30.9231 35.1158 31.2731 34.9358 31.5998C34.7624 31.9265 34.4858 32.1898 34.1058 32.3898C33.7324 32.5898 33.2591 32.6898 32.6858 32.6898H31.5158V35.3698H30.1158V28.3898H32.6858C33.2258 28.3898 33.6858 28.4831 34.0658 28.6698C34.4458 28.8565 34.7291 29.1131 34.9158 29.4398C35.1091 29.7665 35.2058 30.1365 35.2058 30.5498ZM32.6258 31.5598C33.0124 31.5598 33.2991 31.4731 33.4858 31.2998C33.6724 31.1198 33.7658 30.8698 33.7658 30.5498C33.7658 29.8698 33.3858 29.5298 32.6258 29.5298H31.5158V31.5598H32.6258Z" fill="#BF95F9" class="fillStrong"/>
<path d="M37.5797 28.3898V32.7098C37.5797 33.1831 37.7031 33.5465 37.9497 33.7998C38.1964 34.0465 38.5431 34.1698 38.9897 34.1698C39.4431 34.1698 39.7931 34.0465 40.0397 33.7998C40.2864 33.5465 40.4097 33.1831 40.4097 32.7098V28.3898H41.8197V32.6998C41.8197 33.2931 41.6897 33.7965 41.4297 34.2098C41.1764 34.6165 40.8331 34.9231 40.3997 35.1298C39.9731 35.3365 39.4964 35.4398 38.9697 35.4398C38.4497 35.4398 37.9764 35.3365 37.5497 35.1298C37.1297 34.9231 36.7964 34.6165 36.5497 34.2098C36.3031 33.7965 36.1797 33.2931 36.1797 32.6998V28.3898H37.5797Z" fill="#BF95F9" class="fillStrong"/>
</g>
</svg>

<svg xmlns="http://www.w3.org/2000/svg" width="64" height="64" fill="none" viewBox="0 0 64 64">
    <g clip-path="url(#clip0_791_2095)">
        <path fill="#521094" d="M0 16C0 7.163 7.163 0 16 0h32c8.837 0 16 7.163 16 16v32c0 8.837-7.163 16-16 16H16C7.163 64 0 56.837 0 48z" class="fillWeak"/>
        <path fill="#521094" fill-rule="evenodd" d="M48 2H16C8.268 2 2 8.268 2 16v32c0 7.732 6.268 14 14 14h32c7.732 0 14-6.268 14-14V16c0-7.732-6.268-14-14-14M16 0C7.163 0 0 7.163 0 16v32c0 8.837 7.163 16 16 16h32c8.837 0 16-7.163 16-16V16c0-8.837-7.163-16-16-16z" class="fillWeak" clip-rule="evenodd"/>
        <path fill="#fff" fill-rule="evenodd" d="M25.493 12.883A1 1 0 0 0 23.5 13v5H23a5 5 0 0 0-5 5v.5h-5l-.117.007A1 1 0 0 0 13 25.5h5v3h-5l-.117.007A1 1 0 0 0 13 30.5h5v3h-5l-.117.007A1 1 0 0 0 13 35.5h5v3h-5l-.117.007A1 1 0 0 0 13 40.5h5v.5a5 5 0 0 0 5 5h.5v4.828l.007.117a1 1 0 0 0 1.993-.117V46h3v4.828l.007.117a1 1 0 0 0 1.993-.117V46h3v4.828l.007.117a1 1 0 0 0 1.993-.117V46h3v4.828l.007.117a1 1 0 0 0 1.993-.117V46h.5a5 5 0 0 0 5-5v-.5h4.828l.117-.007a1 1 0 0 0-.117-1.993H46v-3h4.828l.117-.007a1 1 0 0 0-.117-1.993H46v-3h4.828l.117-.007a1 1 0 0 0-.117-1.993H46v-3h4.828l.117-.007a1 1 0 0 0-.117-1.993H46V23a5 5 0 0 0-5-5h-.5v-5l-.007-.117A1 1 0 0 0 38.5 13v5h-3v-5l-.007-.117A1 1 0 0 0 33.5 13v5h-3v-5l-.007-.117A1 1 0 0 0 28.5 13v5h-3v-5zM44 24.5V23a3 3 0 0 0-2.824-2.995L41 20H23a3 3 0 0 0-2.995 2.824L20 23v18a3 3 0 0 0 2.824 2.995L23 44h18a3 3 0 0 0 2.995-2.824L44 41z" class="fill" clip-rule="evenodd"/>
        <path fill="#bf95f9" d="M22.1 31.87q0-1.03.46-1.84a3.3 3.3 0 0 1 1.27-1.27 3.6 3.6 0 0 1 1.81-.46q1.17 0 2.05.6t1.23 1.66h-1.61a1.66 1.66 0 0 0-.68-.75 1.95 1.95 0 0 0-1-.25q-.61 0-1.09.29-.47.28-.74.8-.26.52-.26 1.22 0 .69.26 1.22.27.519.74.81.48.28 1.09.28.57 0 1-.25a1.7 1.7 0 0 0 .68-.76h1.61q-.35 1.07-1.23 1.67-.87.59-2.05.59-1 0-1.81-.45a3.4 3.4 0 0 1-1.27-1.27q-.46-.81-.46-1.84m13.106-1.32q0 .56-.27 1.05-.26.49-.83.79-.56.3-1.42.3h-1.17v2.68h-1.4v-6.98h2.57q.81 0 1.38.28t.85.77q.29.49.29 1.11m-2.58 1.01q.58 0 .86-.26.28-.27.28-.75 0-1.02-1.14-1.02h-1.11v2.03zm4.954-3.17v4.32q0 .71.37 1.09.37.37 1.04.37.68 0 1.05-.37.37-.38.37-1.09v-4.32h1.41v4.31q0 .89-.39 1.51a2.4 2.4 0 0 1-1.03.92q-.64.31-1.43.31-.78 0-1.42-.31a2.4 2.4 0 0 1-1-.92q-.37-.62-.37-1.51v-4.31z" class="fillStrong"/>
    </g>
</svg>
